.icons/Gruvbox-Plus-Dark/apps/16/hiri.svg

<svg width="16" height="16" version="1.1" xmlns="http://www.w3.org/2000/svg">
  <defs>
    <style id="current-color-scheme" type="text/css">.ColorScheme-Text { color:#ebdbb2; } .ColorScheme-Highlight { color:#458588; }</style>
  </defs>
  <path class="ColorScheme-Text" d="m8.158 1.479c-1.583 0.164-2.712 0.26-4.33 0.273-1.252-6e-3 -2.409-0.163-3.651-0.253-0.3 1e-3 -0.178 0.11 0.063 0.369 0.194 0.208 0.53 0.253 0.53 0.364 0 0.11 0.057 0.701 0.213 0.863 0.182 0.193 0.46 0.268 0.901 0.202 0.278 0.01 0.281 0.155 0.282 0.409 0 0.176 0.097 0.405 0.215 0.606 0.292 0.5 0.726 0.859 1.206 0.886 0.261 0.014 0.616-0.045 0.89-0.183 0.265-0.134 0.51-0.243 0.544-0.243 0.033 0 0.093 0.211 0.133 0.469 0.156 1.017 0.756 1.311 1.649 1.533 0.412 0.079 0.863 0.093 1.181-0.104-0.115 0.635-0.235 1.306-0.421 2.424-0.156 0.932-0.31 2.321-0.342 2.954-0.051 0.995-0.03 1.205 0.156 1.554 0.275 0.515 0.963 0.916 1.553 0.919l0.455 1e-3 -0.052-0.852c-0.093-1.5 0.572-3.217 1.611-3.944 0.935-0.653 1.136-0.205 0.79 1.755-0.31 1.752-0.269 2.285 0.213 2.731 0.41 0.38 1.005 0.419 1.889 0.123 0.912-0.306 2.323-1.593 2.149-2.062-0.091-0.247-0.199-0.161-0.745 0.278-0.64 0.515-1.075 0.5-1.325 0.213-0.182-0.208-0.176-0.336 0.11-1.527 0.208-0.863 0.396-1.486 0.399-2.172 5e-3 -1.088-0.138-1.536-1.171-1.692-0.79-0.112-1.961 0.112-2.901 0.783-0.288 0.206-0.549 0.349-0.579 0.318-0.029-0.031 0.124-1.071 0.341-2.214s0.395-2.218 0.395-2.39c0-0.316-0.438-0.819-1.725-1.981-0.207-0.186-0.338-0.309-0.501-0.38-0.022-0.023-0.039-0.032-0.053-0.037-0.018 2e-3 -0.035 4e-3 -0.05 5e-3 -8e-3 -3e-3 -0.017-6e-3 -0.025-8e-3 0 0 0 1e-3 3e-3 0.01z" fill="currentColor"/>
</svg>

<svg width="16" height="16" version="1.1" xmlns="http://www.w3.org/2000/svg">
  <defs>
    <style type="text/css" id="current-color-scheme">.ColorScheme-Text { color:#ebdbb2; } .ColorScheme-Highlight { color:#458588; }</style>
  </defs>
  <path class="ColorScheme-Text" fill="currentColor" d="M 8.158 1.479 C 6.575 1.643 5.446 1.739 3.828 1.752 C 2.576 1.746 1.419 1.589 0.177 1.499 C -0.123 1.5 -0.001 1.609 0.24 1.868 C 0.434 2.076 0.77 2.121 0.77 2.232 C 0.77 2.342 0.827 2.933 0.983 3.095 C 1.165 3.288 1.443 3.363 1.884 3.297 C 2.162 3.307 2.165 3.452 2.166 3.706 C 2.166 3.882 2.263 4.111 2.381 4.312 C 2.673 4.812 3.107 5.171 3.587 5.198 C 3.848 5.212 4.203 5.153 4.477 5.015 C 4.742 4.881 4.987 4.772 5.021 4.772 C 5.054 4.772 5.114 4.983 5.154 5.241 C 5.31 6.258 5.91 6.552 6.803 6.774 L 6.803 6.774 C 7.215 6.853 7.666 6.867 7.984 6.67 C 7.869 7.305 7.749 7.976 7.563 9.094 C 7.407 10.026 7.253 11.415 7.221 12.048 C 7.17 13.043 7.191 13.253 7.377 13.602 C 7.652 14.117 8.34 14.518 8.93 14.521 L 9.385 14.522 L 9.333 13.67 C 9.24 12.17 9.905 10.453 10.944 9.726 C 11.879 9.073 12.08 9.521 11.734 11.481 C 11.424 13.233 11.465 13.766 11.947 14.212 C 12.357 14.592 12.952 14.631 13.836 14.335 C 14.748 14.029 16.159 12.742 15.985 12.273 C 15.894 12.026 15.786 12.112 15.24 12.551 C 14.6 13.066 14.165 13.051 13.915 12.764 C 13.733 12.556 13.739 12.428 14.025 11.237 C 14.233 10.374 14.421 9.751 14.424 9.065 C 14.429 7.977 14.286 7.529 13.253 7.373 C 12.463 7.261 11.292 7.485 10.352 8.156 C 10.064 8.362 9.803 8.505 9.773 8.474 C 9.744 8.443 9.897 7.403 10.114 6.26 C 10.331 5.117 10.509 4.042 10.509 3.87 C 10.509 3.554 10.071 3.051 8.784 1.889 C 8.577 1.703 8.446 1.58 8.283 1.509 C 8.261 1.486 8.244 1.477 8.23 1.472 C 8.212 1.474 8.195 1.476 8.18 1.477 C 8.172 1.474 8.163 1.471 8.155 1.469 L 8.155 1.469 C 8.155 1.469 8.155 1.47 8.158 1.479 Z"/>
</svg>
